X:12
T:Menuett
T:efter Gustaf Blidstöm
R:Menuett
Z:Christian Fürst
S:Mia Marin, spelkurs Korrö 2016
M:3/4
K:Gm
L:1/8
Q:1/4 = 166
|:(G2 {c}d2) d2 | e2 dc d2| (cd) (ed) cB |(AG) (AB AB)| (G2 {c}d2) d2 | e2 dc d2| (cd) (ed) cB | A6 :|
|: A2 AB c2| ^F2 FG A2| A2 (AB) cG | ^F2 FG A2| (AG) (AB) cG | ^F2 =ED (dc) | BA (G2 ^F2) | G6 :|

